X: 744
T: Aintin Marie
R: jig
M: 6/8
K: Edorian
B2 E GFE|Bec dcB|A2 D FED|FEF AFE
B2 E GFE|B^AB e2 e|g2 e fed|Be^d e2:|
Bcd e2 e|g2 e fed|ABc dcd|f2 d edc|
BB/c/d e2 e|g2 e fed|f/g/af gfe|faf g2:|

